X:337
%%topmargin 3cm
T:Lady Lucy Ramsay
C:Nath. Gow
O:Scotland
B:Keith Norman MacDonald : "The Skye collection of the best reels & strathspeys extant" : 1887
Z:Ralph Palmer
R:Strathspey
M:C
L:1/8
K:C
f | e<{/f}gg>a g>ec>a | g>ca>c ef | (e<g)g>a g<ag>e | f>d{/f}g>f e<cc :| e |: {/^F}GcEc Td>cd>e |
c<c{cd}e>d {/B}c<AA>c | [1 G<cE<c Td>cd>e | {AB}c<AG>F E<CC>c :| [2 G<cE<c F<dE<c | D<ag>f {gf}e<cc |]
W:
W:These three tunes (Lady Lucy Ramsay, Double Kisses, and Argyle Bowling Green \~n rp) should be played in succession.
